packages/homepage/src/assets/icons/home-js.svg

<svg fill="none" height="44" viewBox="0 0 44 44" width="44" xmlns="http://www.w3.org/2000/svg"><path clip-rule="evenodd" d="m1 1h42.2903v42.2903h-42.2903zm11.1196 35.3409.0001-.0001c.9368 1.9869 2.7823 3.6334 5.9614 3.6334 3.5202 0 5.933-1.8736 5.933-5.9899v-13.569h-3.9742v13.5128c0 1.9869-.8233 2.4978-2.1293 2.4978-1.3623 0-1.9302-.9366-2.5546-2.0436l-3.2363 1.9585-.0001-.0003zm17.2892-2.2995-3.2359 1.8736c1.1637 2.2995 3.5483 4.0595 7.2387 4.0595 3.7755 0 6.586-1.9586 6.586-5.5357 0-3.3213-1.9021-4.7973-5.2804-6.2451l-.9934-.4259c-1.7031-.7381-2.4413-1.2208-2.4413-2.4131 0-.965.7382-1.7032 1.9021-1.7032 1.1355 0 1.8733.4826 2.5546 1.7032l3.0944-1.9871c-1.3058-2.2994-3.1225-3.1795-5.6491-3.1795-3.5486 0-5.8196 2.2711-5.8196 5.2519 0 3.2362 1.9021 4.7692 4.7694 5.9896l.9934.4261c1.8168.7947 2.8955 1.2772 2.8955 2.6399 0 1.1355-1.0501 1.9588-2.6968 1.9588-1.9587 0-3.0657-1.0219-3.9176-2.413z" fill="#fff" fill-rule="evenodd"/></svg>

<svg width="44" height="44" viewBox="0 0 44 44" fill="none" xmlns="http://www.w3.org/2000/svg">
<path fill-rule="evenodd" clip-rule="evenodd" d="M1 1H43.2903V43.2903H1V1ZM12.1196 36.3409L12.1197 36.3408C13.0565 38.3277 14.902 39.9742 18.0811 39.9742C21.6013 39.9742 24.0141 38.1006 24.0141 33.9843V20.4153H20.0399V33.9281C20.0399 35.915 19.2166 36.4259 17.9106 36.4259C16.5483 36.4259 15.9804 35.4893 15.356 34.3823L12.1197 36.3408L12.1196 36.3405L12.1196 36.3409ZM29.4088 34.0414L26.1729 35.915C27.3366 38.2145 29.7212 39.9745 33.4116 39.9745C37.1871 39.9745 39.9976 38.0159 39.9976 34.4388C39.9976 31.1175 38.0955 29.6415 34.7172 28.1937L33.7238 27.7678C32.0207 27.0297 31.2825 26.547 31.2825 25.3547C31.2825 24.3897 32.0207 23.6515 33.1846 23.6515C34.3201 23.6515 35.0579 24.1341 35.7392 25.3547L38.8336 23.3676C37.5278 21.0682 35.7111 20.1881 33.1845 20.1881C29.6359 20.1881 27.3649 22.4592 27.3649 25.44C27.3649 28.6762 29.267 30.2092 32.1343 31.4296L33.1277 31.8557C34.9445 32.6504 36.0232 33.1329 36.0232 34.4956C36.0232 35.6311 34.9731 36.4544 33.3264 36.4544C31.3677 36.4544 30.2607 35.4325 29.4088 34.0414Z" fill="white"/>
</svg>
